X:191
T:Mazurka de Samatan
A:Massif Central
O:France
M:3/4
L:1/8
Q:1/4=160
K:G
D2|B2 BABc|B2 G2 D2|B2 BABc|A4 D2|A2 AGAB|A2 F2 D2|A2 AGAB|G4:|
|:Bc|d2d2 ed|c2A2 AB|c2c2 dc|B4 GA|B2B2 cB|A2F2D2|A2 AGAB|G4:||
